!!!COM: Mozart
!!!OTL: 8 Variationen uber das Lied "Ein Weib ist das herrlichste Ding"
!!!Variation: Theme c
**function	**harm	**kern	**kern
*	*	*clefF4	*clefG2
*	*	*k[b-]	*k[b-]
*M3/4	*M3/4	*M3/4	*M3/4
*F:	*F:	*F:	*F:
*	*	*	*^
4D	4V	4r	4g'	4e
=17	=17	=17	=17	=17
2.D	2.V	2C	(4e	(4c
.	.	.	4g)	4e)
.	.	4r	4g'	4e
=18	=18	=18	=18	=18
2.D	2.V	2C	(4cc	2e
.	.	.	4g)	.
.	.	4r	4g'	4e
=19	=19	=19	=19	=19
2.D	2.V	2C	(4e	(4c
.	.	.	4g)	4e)
.	.	4r	4g'	4e
=20	=20	=20	=20	=20
2.D	2.V	4C	4cc'	4e
.	.	4CC	4r	4r
.	.	4r	4gg'	4ee
=21	=21	=21	=21	=21
2.D	2.V	2c	(4ee	(4cc
.	.	.	4gg)	4ee)
.	.	4r	4gg'	4ee
=22	=22	=22	=22	=22
2.D	2.V	2c	(4ccc	2ee
.	.	.	4gg)	.
.	.	4r	4gg'	4ee
=23	=23	=23	=23	=23
2.D	2.V	2c	(4ee	(4cc
.	.	.	4gg)	4ee)
.	.	4r	4gg'	4ee
=24	=24	=24	=24	=24
2.D	2.V	4c'	4ccc'	4ee
*	*	*	*v	*v
.	.	4C'	4r
.	.	4CC 4C	4c
=25	=25	=25	=25
2.D	2.V	4CC 4C	(4c
.	.	4DD 4D	4d
.	.	4EE 4E	4e)
=26	=26	=26	=26
.	.	.	(q32g
2.D	2.I	4FF 4F	(4f)
.	.	4EE 4E	4e
.	.	4FF 4F	4f)
=27	=27	=27	=27
2.D	2.vi	4DD 4D	(4d
.	.	4EE 4E	4e
.	.	4FF 4F	4f)
=28	=28	=28	=28
.	.	.	(q32a
2.D	2.ii	4GG 4G	(4g)
.	.	4FF# 4F#	4f#
.	.	4GG 4G	4g)
=29	=29	=29	=29
2.D	2.viio	4EE 4E	(4e
.	.	4FF 4F	4f
.	.	4GG 4G	4g)
=30	=30	=30	=30
.	.	.	(q32b-
2.D	2.iii	4AA 4A	(4a)
.	.	4GG# 4G#	4g#
.	.	4AA 4A	4a)
=31	=31	=31	=31
*	*	*	*^
.	.	.	(q32cc	.
2.D	2.V7/V	2.GGn 2.Gn	(4b)	2.d 2.f
.	.	.	4a	.
.	.	.	4b)	.
=32	=32	=32	=32	=32
2.D	2.V	4CC 4C	[2cc	2e
.	.	4r	.	.
*	*	*	*v	*v
.	.	4r	(8.ccL]
.	.	.	16cc#Jk
.	.	.	q32ee
.	.	.	q32dd
.	.	.	q32cc
.	.	.	q32b-
.	.	.	q32a
.	.	.	q32cc
.	.	.	q32b
.	.	.	q32b-
.	.	.	q32a
.	.	.	q32b-
.	.	.	q32g)
*-	*-	*-	*-
